Delta/places/scalable/folder-videos.svg

<svg xmlns="http://www.w3.org/2000/svg" width="192" height="192" viewBox="0 0 192 192">
  <g fill="none" fill-rule="evenodd">
    <rect width="152" height="152" x="20" y="20" fill="#728DBE" rx="10"/>
    <path fill="#9ABEFF" d="M20,42.9965372 C20,37.4756022 24.4775919,33 29.9984742,33 L63.5667725,33 C72.0254898,33 75.1405393,46.256422 78.9328151,46.256422 L161.997289,46.256422 C167.521634,46.256422 172,50.7317026 172,56.254764 L172,162.001658 C172,167.52359 167.522997,172 161.997483,172 L30.0025173,172 C24.4782795,172 20,167.532652 20,162.003463 L20,42.9965372 Z"/>
    <path fill="#728DBE" d="M67.8118812,90.4282746 C67.8118812,87.6714597 70.0434881,85.4366197 72.8032751,85.4366197 L120.196725,85.4366197 C122.953396,85.4366197 125.188119,87.6773117 125.188119,90.4282746 L125.188119,128.571725 C125.188119,131.32854 122.956512,133.56338 120.196725,133.56338 L72.8032751,133.56338 C70.0466044,133.56338 67.8118812,131.322688 67.8118812,128.571725 L67.8118812,90.4282746 Z M140.999935,76 C142.65705,76 144,77.3471803 144,79.0090115 L144,79.0090115 L144,139.990989 C144,141.66165 142.656825,143 140.999935,143 L140.999935,143 L52.0000652,143 C50.3429499,143 49,141.65282 49,139.990989 L49,139.990989 L49,79.0090115 C49,77.3383504 50.343175,76 52.0000652,76 L52.0000652,76 Z M137.302272,127.901408 L131.885847,127.901408 C130.79297,127.901408 129.891089,128.797405 129.891089,129.902673 L129.891089,129.902673 L129.891089,135.336764 C129.891089,136.433205 130.784173,137.338028 131.885847,137.338028 L131.885847,137.338028 L137.302272,137.338028 C138.395149,137.338028 139.29703,136.442032 139.29703,135.336764 L139.29703,135.336764 L139.29703,129.902673 C139.29703,128.806231 138.403946,127.901408 137.302272,127.901408 L137.302272,127.901408 Z M61.1141528,127.901408 L55.6977284,127.901408 C54.6048514,127.901408 53.7029703,128.797405 53.7029703,129.902673 L53.7029703,129.902673 L53.7029703,135.336764 C53.7029703,136.433205 54.5960539,137.338028 55.6977284,137.338028 L55.6977284,137.338028 L61.1141528,137.338028 C62.2070298,137.338028 63.1089109,136.442032 63.1089109,135.336764 L63.1089109,135.336764 L63.1089109,129.902673 C63.1089109,128.806231 62.2158273,127.901408 61.1141528,127.901408 L61.1141528,127.901408 Z M137.302272,112.802817 L131.885847,112.802817 C130.79297,112.802817 129.891089,113.698813 129.891089,114.804081 L129.891089,114.804081 L129.891089,120.238172 C129.891089,121.334614 130.784173,122.239437 131.885847,122.239437 L131.885847,122.239437 L137.302272,122.239437 C138.395149,122.239437 139.29703,121.34344 139.29703,120.238172 L139.29703,120.238172 L139.29703,114.804081 C139.29703,113.70764 138.403946,112.802817 137.302272,112.802817 L137.302272,112.802817 Z M61.1141528,112.802817 L55.6977284,112.802817 C54.6048514,112.802817 53.7029703,113.698813 53.7029703,114.804081 L53.7029703,114.804081 L53.7029703,120.238172 C53.7029703,121.334614 54.5960539,122.239437 55.6977284,122.239437 L55.6977284,122.239437 L61.1141528,122.239437 C62.2070298,122.239437 63.1089109,121.34344 63.1089109,120.238172 L63.1089109,120.238172 L63.1089109,114.804081 C63.1089109,113.70764 62.2158273,112.802817 61.1141528,112.802817 L61.1141528,112.802817 Z M137.302272,97.7042254 L131.885847,97.7042254 C130.79297,97.7042254 129.891089,98.6002219 129.891089,99.7054897 L129.891089,99.7054897 L129.891089,105.139581 C129.891089,106.236022 130.784173,107.140845 131.885847,107.140845 L131.885847,107.140845 L137.302272,107.140845 C138.395149,107.140845 139.29703,106.244849 139.29703,105.139581 L139.29703,105.139581 L139.29703,99.7054897 C139.29703,98.6090481 138.403946,97.7042254 137.302272,97.7042254 L137.302272,97.7042254 Z M61.1141528,97.7042254 L55.6977284,97.7042254 C54.6048514,97.7042254 53.7029703,98.6002219 53.7029703,99.7054897 L53.7029703,99.7054897 L53.7029703,105.139581 C53.7029703,106.236022 54.5960539,107.140845 55.6977284,107.140845 L55.6977284,107.140845 L61.1141528,107.140845 C62.2070298,107.140845 63.1089109,106.244849 63.1089109,105.139581 L63.1089109,105.139581 L63.1089109,99.7054897 C63.1089109,98.6090481 62.2158273,97.7042254 61.1141528,97.7042254 L61.1141528,97.7042254 Z M137.302272,82.6056338 L131.885847,82.6056338 C130.79297,82.6056338 129.891089,83.5016304 129.891089,84.6068981 L129.891089,84.6068981 L129.891089,90.0409892 C129.891089,91.1374308 130.784173,92.0422535 131.885847,92.0422535 L131.885847,92.0422535 L137.302272,92.0422535 C138.395149,92.0422535 139.29703,91.146257 139.29703,90.0409892 L139.29703,90.0409892 L139.29703,84.6068981 C139.29703,83.5104566 138.403946,82.6056338 137.302272,82.6056338 L137.302272,82.6056338 Z M61.1141528,82.6056338 L55.6977284,82.6056338 C54.6048514,82.6056338 53.7029703,83.5016304 53.7029703,84.6068981 L53.7029703,84.6068981 L53.7029703,90.0409892 C53.7029703,91.1374308 54.5960539,92.0422535 55.6977284,92.0422535 L55.6977284,92.0422535 L61.1141528,92.0422535 C62.2070298,92.0422535 63.1089109,91.146257 63.1089109,90.0409892 L63.1089109,90.0409892 L63.1089109,84.6068981 C63.1089109,83.5104566 62.2158273,82.6056338 61.1141528,82.6056338 L61.1141528,82.6056338 Z"/>
  </g>
</svg>

<svg width="192" height="192" version="1.1" viewBox="0 0 192 192" xmlns="http://www.w3.org/2000/svg">
 <rect x="20" y="20" width="152" height="152" rx="10" style="fill-rule:evenodd;fill:#728dbe"/>
 <path d="m20 42.997c0-5.5209 4.4776-9.9965 9.9985-9.9965h33.568c8.4587 0 11.574 13.256 15.366 13.256h83.064c5.5243 0 10.003 4.4753 10.003 9.9983v105.75c0 5.5219-4.477 9.9983-10.003 9.9983h-131.99c-5.5242 0-10.003-4.4674-10.003-9.9965z" style="fill-rule:evenodd;fill:#9abeff"/>
 <path d="m67.812 90.428c0-2.7568 2.2316-4.9917 4.9914-4.9917h47.393c2.7567 0 4.9914 2.2407 4.9914 4.9917v38.143c0 2.7568-2.2316 4.9917-4.9914 4.9917h-47.393c-2.7567 0-4.9914-2.2407-4.9914-4.9917zm73.188-14.428c1.6571 0 3.0001 1.3472 3.0001 3.009v60.982c0 1.6707-1.3432 3.009-3.0001 3.009h-89c-1.6571 0-3.0001-1.3472-3.0001-3.009v-60.982c0-1.6707 1.3432-3.009 3.0001-3.009zm-3.6977 51.901h-5.4164c-1.0929 0-1.9948 0.89599-1.9948 2.0013v5.4341c0 1.0964 0.89308 2.0013 1.9948 2.0013h5.4164c1.0929 0 1.9948-0.896 1.9948-2.0013v-5.4341c0-1.0964-0.89308-2.0013-1.9948-2.0013zm-76.188 0h-5.4164c-1.0929 0-1.9948 0.89599-1.9948 2.0013v5.4341c0 1.0964 0.89308 2.0013 1.9948 2.0013h5.4164c1.0929 0 1.9948-0.896 1.9948-2.0013v-5.4341c0-1.0964-0.89308-2.0013-1.9948-2.0013zm76.188-15.099h-5.4164c-1.0929 0-1.9948 0.89599-1.9948 2.0013v5.4341c0 1.0964 0.89308 2.0013 1.9948 2.0013h5.4164c1.0929 0 1.9948-0.896 1.9948-2.0013v-5.4341c0-1.0964-0.89308-2.0013-1.9948-2.0013zm-76.188 0h-5.4164c-1.0929 0-1.9948 0.89599-1.9948 2.0013v5.4341c0 1.0964 0.89308 2.0013 1.9948 2.0013h5.4164c1.0929 0 1.9948-0.896 1.9948-2.0013v-5.4341c0-1.0964-0.89308-2.0013-1.9948-2.0013zm76.188-15.099h-5.4164c-1.0929 0-1.9948 0.896-1.9948 2.0013v5.4341c0 1.0964 0.89308 2.0013 1.9948 2.0013h5.4164c1.0929 0 1.9948-0.896 1.9948-2.0013v-5.4341c0-1.0964-0.89308-2.0013-1.9948-2.0013zm-76.188 0h-5.4164c-1.0929 0-1.9948 0.896-1.9948 2.0013v5.4341c0 1.0964 0.89308 2.0013 1.9948 2.0013h5.4164c1.0929 0 1.9948-0.896 1.9948-2.0013v-5.4341c0-1.0964-0.89308-2.0013-1.9948-2.0013zm76.188-15.099h-5.4164c-1.0929 0-1.9948 0.896-1.9948 2.0013v5.4341c0 1.0964 0.89308 2.0013 1.9948 2.0013h5.4164c1.0929 0 1.9948-0.896 1.9948-2.0013v-5.4341c0-1.0964-0.89308-2.0013-1.9948-2.0013zm-76.188 0h-5.4164c-1.0929 0-1.9948 0.896-1.9948 2.0013v5.4341c0 1.0964 0.89308 2.0013 1.9948 2.0013h5.4164c1.0929 0 1.9948-0.896 1.9948-2.0013v-5.4341c0-1.0964-0.89308-2.0013-1.9948-2.0013z" style="fill-rule:evenodd;fill:#728dbe"/>
</svg>
